X:2897
T:Polonäs i Dm
R:Slängpolska
B:http://www.smus.se/earkiv/fmk/browselarge.php?lang=sw&katalogid=MMD+55&bildnr=00067
Z:Nils L
M:3/4
L:1/16
K:Dm
Sa2g2 f2fa e2eg | f2ed dcec A4 | A2>G2 F2FA E2EG | F2ED ^CDEC A,4 |
(A,EAE) (DFAF) (DFAF) | DEFG [A,2A2][A,2A2] [A4A,4] | (A,EAE) (DFAF) (DFAd) | (fedc) c4 d4 ::
F2f2 agfe f4 | F2a2 c'bag g4 | c2a2 b2a2g2f2 | efge f2c2A2F2 |
afaf dBdB [G,G]4 | gege cAcA [FB,]4 | f2e2 dcde gfed | c2d2 eaga A4 S:|
(:musicend:)
(:music:)
